client/resources/iconsets/breeze/src/svg/large/icon_large_calendar_view_day.svg

<svg xmlns="http://www.w3.org/2000/svg" width="32" height="32" viewBox="0 0 32 32">
 <path style="fill:#6d6d70"
       d="M 7.5,4 C 7.223,4 7,4.223 7,4.5 L 7,5 5,5 4,5 C 3.4459997,5 3,5.446 3,6 l 0,22 c 0,0.554 0.4459997,1 1,1 l 24,0 c 0.554,0 1,-0.446 1,-1 L 29,6 C 29,5.446 28.553999,5 28,5 L 27,5 25,5 25,4.5 C 25,4.223 24.777,4 24.5,4 l -3,0 C 21.223,4 21,4.223 21,4.5 L 21,5 11,5 11,4.5 C 11,4.223 10.777,4 10.5,4 Z M 5,8 l 22,0 0,18.730469 -22,0 z M 15.546875,11 11,14.333984 l 1.439453,1.654297 1.621094,-1.201172 C 14.25365,14.644838 14.504368,14.456452 15,14 l 0,10 3,0 0,-13 z"
       />
</svg>

<svg xmlns="http://www.w3.org/2000/svg" width="32" height="32"><path d="M7.5 4a.5.5 0 0 0-.5.5V5H5 4a1 1 0 0 0-1 1v22a1 1 0 0 0 1 1h24a1 1 0 0 0 1-1V6a1 1 0 0 0-1-1h-1-2v-.5a.5.5 0 0 0-.5-.5h-3a.5.5 0 0 0-.5.5V5H11v-.5a.5.5 0 0 0-.5-.5zM5 8h22v18.73H5zm10.547 3L11 14.334l1.439 1.654 1.621-1.201A10.01 10.01 0 0 0 15 14v10h3V11z" fill="#6d6d70"/></svg>
